!!!COM: Palestrina, Giovanni Perluigi da
!!!OPR: Missa Sine nomine (1599)
!!!OMD: Benedictus
!!!OTL: Hosanna
**kern	**kern	**kern	**kern	**kern
*Ibass	*Itenor	*Icalto	*Icalto	*Icant
!Bassus	!Tenor	!Altus 2	!Altus 1	!Cantus
*clefF4	*clefGv2	*clefG2	*clefG2	*clefG2
*k[]	*k[]	*k[]	*k[]	*k[]
*A:aeo	*A:aeo	*A:aeo	*A:aeo	*A:aeo
*M4/2	*M4/2	*M4/2	*M4/2	*M4/2
=32	=32	=32	=32	=32
1A	0r	0r	0r	0r
2G	.	.	.	.
2F	.	.	.	.
=33	=33	=33	=33	=33
2G	1r	0r	0r	0r
2B-	.	.	.	.
2.A	1e	.	.	.
4G	.	.	.	.
=34	=34	=34	=34	=34
2F	2d	0r	0r	0r
2E	2c#	.	.	.
2D	2d	.	.	.
[2d	[2f	.	.	.
=35	=35	=35	=35	=35
2d]	2f]	0r	1a	0r
2c	2e	.	.	.
2B-	2d	.	2g	.
2A	2c	.	2f	.
=36	=36	=36	=36	=36
1G	2.d	0r	2g	0r
.	.	.	2b-	.
.	4e	.	.	.
4F	2f	.	1a	.
4G	.	.	.	.
4A	4e	.	.	.
4B	4d	.	.	.
=37	=37	=37	=37	=37
2c	2e	0r	2g	1r
2d	1d	.	2f	.
1A	.	.	2e	1ee
.	2c#	.	2a	.
=38	=38	=38	=38	=38
0r	2d	0r	2b-	2dd
.	2.f	.	2.a	2cc
.	.	.	.	2dd
.	4e	.	4g	.
.	2d	.	4a	2ff
.	.	.	4f	.
=39	=39	=39	=39	=39
0r	2.c	1r	2g	2.ee
.	.	.	2e	.
.	4B	.	.	4dd
.	2A	2r	2f#	2cc
.	2G	[2g	2g	2b
=40	=40	=40	=40	=40
1D	2.d	2g]	2a	1a
.	.	2f	2d	.
.	4c	.	.	.
2E	2B	2e	1r	2g#
2D	2d	2f	.	[2a
=41	=41	=41	=41	=41
2F	1c	2a	2r	2a]
2C	.	2.g	2e	2r
2G	2B	.	2d	1r
.	.	4f	.	.
2A	[2A	2e	2c	.
=42	=42	=42	=42	=42
2F	2A]	2d	2d	0r
2E	2G	1c	2e	.
1D	1F	.	1f	.
.	.	2B	.	.
=43	=43	=43	=43	=43
1C	2G	1c	2e	2r
.	1g	.	2e	1ee
1D	.	1r	1a	.
.	2f	.	.	2dd
=44	=44	=44	=44	=44
2A	2e	0r	2.a	2cc
2D	1f	.	.	2dd
.	.	.	4g	.
2d	.	.	4a	2ff
.	.	.	4b	.
[2c	2g	.	2cc	[2ee
=45	=45	=45	=45	=45
4c]	1c	1r	2g	4ee]
4B	.	.	.	4dd
2A	.	.	2a	1cc
1G	1d	1g	2r	.
.	.	.	2g	2b
=46	=46	=46	=46	=46
2r	0r	2f	2a	2cc
2C	.	2e	2g	2ee
1F	.	2f	2a	2dd
.	.	2a	2f	[2cc
=47	=47	=47	=47	=47
1G	1r	2.g	2e	2cc]
.	.	.	2d	2b
.	.	4f	.	.
2.A	2r	1e	1c	1cc
.	2c	.	.	.
4G	.	.	.	.
=48	=48	=48	=48	=48
2F	2A	2d	2r	0r
2E	2B	2e	2g	.
2C	2c	2g	2e	.
2D	2A	2f	[2a	.
=49	=49	=49	=49	=49
1E	2c	1e	2a]	1r
.	4B	.	4g#	.
.	4A	.	4f#	.
2r	2B	2d	2g#	2r
[2A	4A	[2e	2a	[2cc
.	4B	.	.	.
=50	=50	=50	=50	=50
2A]	4c	2e]	1e	2cc]
.	4d	.	.	.
2G	4e	2r	.	2b
.	8d	.	.	.
.	8e	.	.	.
2F	2f	1r	2r	2a
2G	[2d	.	2g	2b
=51	=51	=51	=51	=51
2B-	2d]	0r	2f	2dd
2A	2e	.	2a	1cc
4F	2f	.	2a	.
4G	.	.	.	.
4A	2e	.	2a	[2cc
4B	.	.	.	.
=52	=52	=52	=52	=52
2c	0r	1e	1.g	4cc]
.	.	.	.	4b
2C	.	.	.	4g
.	.	.	.	4a
2G	.	2d	.	2b
2A	.	2c	4f	2cc
.	.	.	4e	.
=53	=53	=53	=53	=53
1D	0r	2d	4f	1.a
.	.	.	4e	.
.	.	2f	2d	.
1A	.	1e	2c	.
.	.	.	[2a	2cc
=54	=54	=54	=54	=54
1.E	1B	[0e	2a]	1b
.	.	.	2g#	.
.	2A	.	2a	2cc
2E	2G#	.	2b	2b
=55	=55	=55	=55	=55
1A	2A	1e_	2cc	2a
.	2c	.	1a	2.ee
1E	1B	1e_	.	.
.	.	.	.	4dd
.	.	.	2g#	2b
=56	=56	=56	=56	=56
0A	0A	0e]	0a	0cc#
==	==	==	==	==
*-	*-	*-	*-	*-
!!!CDT: 1525/^1526/-1594/2/2
!!!OCY: Italia
!!!AGN: Mass (Canonic)
!!!AST: renaissance, vocal
!!!ASW: Antiphon
!!!PWK: Masses, Book 9
!!!RNB: Cadence finals: D
!!!YOR: Le Opere Complete, v. 25, p. 93
!!!YOO: Rome, Italy: Fratelli Scalera
!!!END: 1992//
!!!EED: John Miller
!!!YEC: Copyright 2000, John Miller
!!!YEN: United States of America
!!!YEM: Rights to all derivative electronic formats reserved.
!!!YEM: Refer to licensing agreement for further details.
!!!YEM: This file must be accompanied by the licensing agreement.
!!!YEM: A copy of the licensing agreement may be found at http://www.music-cog.ohio-state.edu/HumdrumDatabases/Palestrina/license.txt
!!!EMD: converted to Humdrum by Bret Aarden
